X: 29512
T: Nine Points Of Knavery, The
R: reel
M: 4/4
K: Edorian
Beec BcdB|A2FD FAA3/2 z/|B2AB defe|1 dBAF EFGA:|2 dBAF E2zA||
Beed e2de|fedf afed|Beed ~e2ef|afde feef|
~a2af egfe|dBAF ABde|f2ef defe|dBAF EFGA||

